!!!COM: Falla (y Matheu), Manuel de
!!!OTL: Noches en los jardines de España (Nights in the Spanish Gardens) for Piano and Orchestra
!!!OMV: III: En los jardines de la Sierra de Córdoba (In the Gardens of the Sierra de Córdoba)
!!!example: 318
!!!work: Fal-5
**kern	**dynam	**kern	**dynam	**kern	**dynam	**kern	**dynam	**kern	**dynam	**kern	**kern	**kern	**kern	**dynam	**kern	**dynam	**kern	**dynam	**kern	**dynam	**kern	**dynam
*part12	*part12	*part11	*part11	*part10	*part10	*part9	*part9	*part8	*part8	*part7	*part7	*part6	*part5	*part5	*part4	*part4	*part3	*part3	*part2	*part2	*part1	*part1
*staff14	*	*staff13	*	*staff12	*	*staff11	*	*staff10	*	*staff9	*staff8	*staff7	*staff5	*	*staff4	*	*staff3	*	*staff2	*	*staff1	*
*I"Contrabass	*	*I"Violoncello	*	*I"Viola	*	*I"Violin II	*	*I"Violin I	*	*I"Piano	*	*I"Harp	*I"Timpani	*	*I"Trumpet in C	*	*I"Horn in F	*	*I"P2	*	*I"Cor Anglais	*
*I'Cb.	*	*I'Vc.	*	*I'Vla.	*	*I'Vln. II	*	*I'Vln. I	*	*I'Pno.	*	*I'Hp.	*I'Timp.	*	*I'C Tpt.	*	*	*	*I'Hn.	*	*I'English Horn	*
*clefF4	*	*clefF4	*	*clefC3	*	*clefG2	*	*clefG2	*	*clefF4	*clefG2	*clefF4	*clefF4	*	*clefG2	*	*clefF4	*	*clefG2	*	*clefG2	*
*ITrd0c0	*	*	*	*	*	*	*	*	*	*	*	*	*	*	*	*	*ITrd4c7	*	*ITrd4c7	*	*ITrd4c7	*
*k[]	*	*k[]	*	*k[]	*	*k[]	*	*k[]	*	*k[]	*k[]	*k[]	*k[]	*	*k[]	*	*k[]	*	*k[]	*	*k[]	*
*C:	*	*C:	*	*C:	*	*C:	*	*C:	*	*C:	*C:	*C:	*C:	*	*C:	*	*C:	*	*C:	*	*C:	*
*M9/8	*	*M9/8	*	*M9/8	*	*M9/8	*	*M9/8	*	*M9/8	*M9/8	*M9/8	*M9/8	*	*M9/8	*	*M9/8	*	*M9/8	*	*M9/8	*
*MM121	*	*MM121	*	*MM121	*	*MM121	*	*MM121	*	*MM121	*MM121	*MM121	*MM121	*	*MM121	*	*MM121	*	*MM121	*	*MM121	*
=175	=175	=175	=175	=175	=175	=175	=175	=175	=175	=175	=175	=175	=175	=175	=175	=175	=175	=175	=175	=175	=175	=175
!LO:TX:t=arco	!	!	!	!	!	!	!	!	!	!	!	!	!	!	!	!	!	!	!	!	!	!
!LO:TX:t=tutti con sord.	!	!LO:TX:t=pizz.	!	!LO:TX:t=tutti pizz.	!	!LO:TX:t=tutti pizz.	!	!LO:TX:t=tutti pizz.	!	!	!	!	!	!	!	!	!	!	!	!	!	!
*	*	*	*	*	*	*	*	*	*	*	*	*	*	*	*	*	*^	*	*	*	*	*
[2.FF#X	pp	4FF#X 4D#X	mf	4B	mf	4f#X	mf	4b	mf	8FFF#X 8FF#X	8B: 8d#X: 8f#X: 8b:	8r	8FF#XL	p >	[2.B [2.b	pp >	[2.DD#X	[2.FFF#X	p >	[2.d#X [2.f#X	p >	8%9r	.
.	.	.	.	.	.	.	.	.	.	8r	8r	8FF#XL	16FF#L	.	.	.	.	.	.	.	.	.	.
.	.	.	.	.	.	.	.	.	.	.	.	.	16FF#	.	.	.	.	.	.	.	.	.	.
.	.	8r	.	8r	.	8r	.	8r	.	8r	8r	8GG-XJ	16FF#	.	.	.	.	.	.	.	.	.	.
.	.	.	.	.	.	.	.	.	.	.	.	.	16FF#JJ	.	.	.	.	.	.	.	.	.	.
.	.	4.r	.	4.r	.	4.r	.	4.r	.	4.r	4.r	8FF#L	8FF#L	.	.	.	.	.	.	.	.	.	.
.	.	.	.	.	.	.	.	.	.	.	.	8GG-	8FF#	.	.	.	.	.	.	.	.	.	.
.	.	.	.	.	.	.	.	.	.	.	.	8FF#J	8FF#J	.	.	.	.	.	.	.	.	.	.
4.FF#_	.	4.r	.	4.r	.	4.r	.	4.r	.	4.r	4.r	8r	8r	.	4.B] 4.b]	]	4.DD#_	4.FFF#_	]	4.d#_ 4.f#_	]	.	.
.	.	.	.	.	.	.	.	.	.	.	.	8GG-L	8FF#L	.	.	.	.	.	.	.	.	.	.
.	.	.	.	.	.	.	.	.	.	.	.	8FF#J	8FF#J	]	.	.	.	.	.	.	.	.	.
=176	=176	=176	=176	=176	=176	=176	=176	=176	=176	=176	=176	=176	=176	=176	=176	=176	=176	=176	=176	=176	=176	=176	=176
!	!	!LO:TX:t=arco con sord.div.	!	!LO:TX:t=arco con sord.	!	!LO:TX:t=arco con sord.	!	!LO:TX:t=arco con sord.	!	!	!	!	!	!	!	!	!	!	!	!	!	!	!
2.FF#X_	.	4.r	.	4.r	.	4.r	.	4.r	.	8%9r	8%9r	8r	8r	.	8%9r	.	4.DD#]	2.FFF#X_	.	4d#] 4f#]	.	8%9r	.
.	.	.	.	.	.	.	.	.	.	.	.	8FF#XL	16FF#XLL	.	.	.	.	.	.	.	.	.	.
.	.	.	.	.	.	.	.	.	.	.	.	.	16FF#	.	.	.	.	.	.	.	.	.	.
.	.	.	.	.	.	.	.	.	.	.	.	8GG-XJ	16FF#	.	.	.	.	.	.	8r	.	.	.
.	.	.	.	.	.	.	.	.	.	.	.	.	16FF#JJ	.	.	.	.	.	.	.	.	.	.
.	.	4.r	.	4.r	.	4.r	.	4.r	.	.	.	8FF#L	8FF#L	.	.	.	4.r	.	.	4.r	.	.	.
.	.	.	.	.	.	.	.	.	.	.	.	8GG-	8FF#	.	.	.	.	.	.	.	.	.	.
.	.	.	.	.	.	.	.	.	.	.	.	8FF#J	8FF#J	.	.	.	.	.	.	.	.	.	.
*	*	*clefC4	*	*	*	*	*	*	*	*	*	*	*	*	*	*	*	*	*	*	*	*	*
4.FF#_	.	(>4.B 4.a-X	pp >	(>4.dd	pp >	(>4.gg#X	pp >	(>4.eee	pp >	.	.	8r	8r	.	.	.	4.r	4.FFF#_	.	(>4.B- 4.a-X	pp	.	.
.	.	.	.	.	.	.	.	.	.	.	.	8GG-L	8FF#L	.	.	.	.	.	.	.	.	.	.
.	.	.	.	.	.	.	.	.	.	.	.	8FF#J	8FF#J	.	.	.	.	.	.	.	.	.	.
=177	=177	=177	=177	=177	=177	=177	=177	=177	=177	=177	=177	=177	=177	=177	=177	=177	=177	=177	=177	=177	=177	=177	=177
!	!	!LO:TX:t=unis.	!	!	!	!	!	!	!	!	!	!	!	!	!	!	!	!	!	!	!	!	!
2.FF#X_	.	[4.e-X)	]	[4.g)	]	[4.cc#X)	]	[4.aa)	]	8%9r	8%9r	8r	8r	.	8%9r	.	8%9r	2.FFF#X_	.	4.e-X 4.dd-X)	>	8%9r	.
.	.	.	.	.	.	.	.	.	.	.	.	8FF#XL	16FF#XLL	.	.	.	.	.	.	.	.	.	.
.	.	.	.	.	.	.	.	.	.	.	.	.	16FF#	.	.	.	.	.	.	.	.	.	.
.	.	.	.	.	.	.	.	.	.	.	.	8GG-XJ	16FF#	.	.	.	.	.	.	.	.	.	.
.	.	.	.	.	.	.	.	.	.	.	.	.	16FF#JJ	.	.	.	.	.	.	.	.	.	.
.	.	8.d#XL]	<	8.gL]	<	8.cc#L]	<	8.aaL]	<	.	.	8FF#L	8FF#L	.	.	.	.	.	.	4.r	]	.	.
.	.	.	.	.	.	.	.	.	.	.	.	8GG-	8FF#	.	.	.	.	.	.	.	.	.	.
.	.	8.f#XJ	.	8.a	.	8.dd#X	.	8.bb	.	.	.	.	.	.	.	.	.	.	.	.	.	.	.
.	.	.	.	.	.	.	.	.	.	.	.	8FF#J	8FF#J	.	.	.	.	.	.	.	.	.	.
4.FF#_	.	8.g#XL	.	8.b	.	8.ee#X	.	8.ccc#X	.	.	.	8r	8r	.	.	.	.	4.FFF#_	.	4.r	.	.	.
.	.	.	.	.	.	.	.	.	.	.	.	8GG-L	8FF#L	.	.	.	.	.	.	.	.	.	.
.	.	8.aJ)	[	8.cc#XiJ)	[	8.ff#XJ)	[	8.dddJ)	[	.	.	.	.	.	.	.	.	.	.	.	.	.	.
.	.	.	.	.	.	.	.	.	.	.	.	8FF#J	8FF#J	.	.	.	.	.	.	.	.	.	.
=178	=178	=178	=178	=178	=178	=178	=178	=178	=178	=178	=178	=178	=178	=178	=178	=178	=178	=178	=178	=178	=178	=178	=178
2.FF#_	.	2.d#X	>	2.f#X	>	2.b#X	>	2.gg#X	>	8%9r	8%9r	8r	8r	.	8%9r	.	8%9r	4.FFF#X]	.	4.r	.	8%9r	.
.	.	.	.	.	.	.	.	.	.	.	.	8FF#XL	16FF#XLL	.	.	.	.	.	.	.	.	.	.
.	.	.	.	.	.	.	.	.	.	.	.	.	16FF#	.	.	.	.	.	.	.	.	.	.
.	.	.	.	.	.	.	.	.	.	.	.	8GG-XJ	16FF#	.	.	.	.	.	.	.	.	.	.
.	.	.	.	.	.	.	.	.	.	.	.	.	16FF#JJ	.	.	.	.	.	.	.	.	.	.
.	.	.	.	.	.	.	.	.	.	.	.	8FF#L	8FF#L	.	.	.	.	[2.FFF	.	4.r	.	.	.
.	.	.	.	.	.	.	.	.	.	.	.	8GG-	8FF#	.	.	.	.	.	.	.	.	.	.
.	.	.	.	.	.	.	.	.	.	.	.	8FF#J	8FF#J	.	.	.	.	.	.	.	.	.	.
!	!	!LO:TX:t=div.	!	!	!	!	!	!	!	!	!	!	!	!	!	!	!	!	!	!	!	!	!
4.FF#_	.	(>4.dn 4.g#X	] >	(>4.b	] >	(>4.ee#X	] >	(>4.ccc#X	] >	.	.	8r	8r	.	.	.	.	.	.	(>4.d 4.g#X	.	.	.
.	.	.	.	.	.	.	.	.	.	.	.	8GG-L	8FF#L	.	.	.	.	.	.	.	.	.	.
.	.	.	.	.	.	.	.	.	.	.	.	8FF#J	8FF#J	.	.	.	.	.	.	.	.	.	.
=179	=179	=179	=179	=179	=179	=179	=179	=179	=179	=179	=179	=179	=179	=179	=179	=179	=179	=179	=179	=179	=179	=179	=179
!	!	!LO:TX:t=unis.	!	!	!	!	!	!	!	!	!	!	!	!	!	!	!	!	!	!	!	!	!
2.FF#X_	.	[4.c)	]	[4.e)	]	[4.a#X)	]	[4.ff#X)	]	8%9r	8%9r	8r	8r	.	8%9r	.	8%9r	[2.FFF#X	.	4.c 4.a#X)	>	8%9r	.
.	.	.	.	.	.	.	.	.	.	.	.	8FF#XL	16FF#XLL	.	.	.	.	.	.	.	.	.	.
.	.	.	.	.	.	.	.	.	.	.	.	.	16FF#	.	.	.	.	.	.	.	.	.	.
.	.	.	.	.	.	.	.	.	.	.	.	8GG-XJ	16FF#	.	.	.	.	.	.	.	.	.	.
.	.	.	.	.	.	.	.	.	.	.	.	.	16FF#JJ	.	.	.	.	.	.	.	.	.	.
.	.	8.cL]	<	8.eL]	<	8.a#L]	<	8.ff#L]	<	.	.	8FF#L	8FF#L	.	.	.	.	.	.	4.r	]	.	.
.	.	.	.	.	.	.	.	.	.	.	.	8GG-	8FF#	.	.	.	.	.	.	.	.	.	.
.	.	8.d#X	.	8.f#X	.	8.b#X	.	8.gg#X	.	.	.	.	.	.	.	.	.	.	.	.	.	.	.
.	.	.	.	.	.	.	.	.	.	.	.	8FF#J	8FF#J	.	.	.	.	.	.	.	.	.	.
4.FF#_	.	8.e	.	8.g	.	8.cc#X	.	8.aa	.	.	.	8r	8r	.	.	.	.	4.FFF#_	.	4.r	.	.	.
.	.	.	.	.	.	.	.	.	.	.	.	8GG-L	8FF#L	.	.	.	.	.	.	.	.	.	.
.	.	8.f#XJ)	[	8.aJ)	[	8.dd#XJ)	[	8.bbJ)	[	.	.	.	.	.	.	.	.	.	.	.	.	.	.
.	.	.	.	.	.	.	.	.	.	.	.	8FF#J	8FF#J	.	.	.	.	.	.	.	.	.	.
*	*	*	*	*	*	*	*	*	*	*	*	*	*	*	*	*	*	*	*	*clefF4	*	*	*
=180	=180	=180	=180	=180	=180	=180	=180	=180	=180	=180	=180	=180	=180	=180	=180	=180	=180	=180	=180	=180	=180	=180	=180
!	!	!	!	!	!	!	!	!	!	!	!	!	!	!	!	!	!	!	!	!LO:TX:t=II.	!	!	!
*	*	*	*	*	*	*	*	*	*	*	*	*	*	*	*	*	*	*	*	*^	*	*	*
2.FF#X_	.	2.B	>	2.d	>	2.g#X	>	2.ee	>	8%9r	8%9r	8r	8r	.	8%9r	.	8%9r	4.FFF#]	.	2.r	4.r	.	8%9r	.
.	.	.	.	.	.	.	.	.	.	.	.	8FF#XL	16FF#XLL	.	.	.	.	.	.	.	.	.	.	.
.	.	.	.	.	.	.	.	.	.	.	.	.	16FF#	.	.	.	.	.	.	.	.	.	.	.
.	.	.	.	.	.	.	.	.	.	.	.	8GG-XJ	16FF#	.	.	.	.	.	.	.	.	.	.	.
.	.	.	.	.	.	.	.	.	.	.	.	.	16FF#JJ	.	.	.	.	.	.	.	.	.	.	.
.	.	.	.	.	.	.	.	.	.	.	.	8FF#L	8FF#L	.	.	.	.	4.r	.	.	[2.FFF#X	.	.	.
.	.	.	.	.	.	.	.	.	.	.	.	8GG-	8FF#	.	.	.	.	.	.	.	.	.	.	.
.	.	.	.	.	.	.	.	.	.	.	.	8FF#J	8FF#J	.	.	.	.	.	.	.	.	.	.	.
!	!	!LO:TX:i:t=cresc.	!	!LO:TX:i:t=cresc.	!	!LO:TX:i:t=cresc.	!	!LO:TX:i:t=cresc.	!	!	!	!	!	!	!	!	!	!	!	!	!	!	!	!
4.FF#_	.	(>4.e-X	]	(>4.g	]	(>4.cc#X	]	(>4.aa	]	.	.	8r	8r	.	.	.	.	4.r	.	4.ryy	.	.	.	.
.	.	.	.	.	.	.	.	.	.	.	.	8GG-L	8FF#L	.	.	.	.	.	.	.	.	.	.	.
.	.	.	.	.	.	.	.	.	.	.	.	8FF#J	8FF#J	.	.	.	.	.	.	.	.	.	.	.
*	*	*	*	*	*	*	*	*	*	*	*	*	*	*	*	*	*v	*v	*	*	*	*	*	*
=181	=181	=181	=181	=181	=181	=181	=181	=181	=181	=181	=181	=181	=181	=181	=181	=181	=181	=181	=181	=181	=181	=181	=181
!	!	!	!	!	!	!	!	!LO:TX:B:t=poco affrett.	!	!	!	!	!	!	!	!	!	!	!	!	!	!LO:TX:B:t=poco affrett.	!
2.FF#_	.	[4.A)	.	[4.c)	.	[4.f#X)	.	[4.dd)	.	8%9r	8%9r	8r	8r	.	8%9r	.	8%9r	.	2.r	2.FFF#_	.	8%9r	.
.	.	.	.	.	.	.	.	.	.	.	.	8FF#XL	16FF#XLL	.	.	.	.	.	.	.	.	.	.
.	.	.	.	.	.	.	.	.	.	.	.	.	16FF#	.	.	.	.	.	.	.	.	.	.
.	.	.	.	.	.	.	.	.	.	.	.	8GG-XJ	16FF#	.	.	.	.	.	.	.	.	.	.
.	.	.	.	.	.	.	.	.	.	.	.	.	16FF#JJ	.	.	.	.	.	.	.	.	.	.
.	.	8.AL]	.	8.cL]	.	8.f#L]	.	8.ddL]	.	.	.	8FF#L	8FF#L	.	.	.	.	.	.	.	.	.	.
.	.	.	.	.	.	.	.	.	.	.	.	8GG-	8FF#	.	.	.	.	.	.	.	.	.	.
.	.	8.B	.	8.d	.	8.g#X	.	8.ee	.	.	.	.	.	.	.	.	.	.	.	.	.	.	.
.	.	.	.	.	.	.	.	.	.	.	.	8FF#J	8FF#J	.	.	.	.	.	.	.	.	.	.
4.FF#_	.	8.c#X	.	8.e	.	8.a#X	.	8.ff#X	.	.	.	8r	8r	.	.	.	.	.	4.r	4.FFF#_	.	.	.
.	.	.	.	.	.	.	.	.	.	.	.	8GG-L	8FF#L	.	.	.	.	.	.	.	.	.	.
.	.	8.dJ)	.	8.fJ)	.	8.bJ)	.	8.ggJ)	.	.	.	.	.	.	.	.	.	.	.	.	.	.	.
.	.	.	.	.	.	.	.	.	.	.	.	8FF#J	8FF#J	.	.	.	.	.	.	.	.	.	.
=182	=182	=182	=182	=182	=182	=182	=182	=182	=182	=182	=182	=182	=182	=182	=182	=182	=182	=182	=182	=182	=182	=182	=182
*	*	*	*	*	*	*	*	*	*	*	*	*	*	*	*	*	*^	*	*	*	*	*	*
2.FF#X_	.	(>8.GL	.	(>8.BL	.	(<8.e#XL	.	(>8.cc#XL	.	8%9r	8%9r	8r	8r	.	8%9r	.	2.r	4.r	.	4.ryy	4.FFF#]	.	4.r	.
.	.	.	.	.	.	.	.	.	.	.	.	8FF#XL	16FF#XLL	.	.	.	.	.	.	.	.	.	.	.
.	.	8.A	.	8.c	.	8.f#X	.	8.dd	.	.	.	.	16FF#	.	.	.	.	.	.	.	.	.	.	.
.	.	.	.	.	.	.	.	.	.	.	.	8GG-XJ	16FF#	.	.	.	.	.	.	.	.	.	.	.
.	.	.	.	.	.	.	.	.	.	.	.	.	16FF#JJ	.	.	.	.	.	.	.	.	.	.	.
.	.	8.B	.	8.d	.	8.g#X	.	8.ee	.	.	.	8FF#L	8FF#L	.	.	.	.	[2.FFF#X	.	4.ryy	4.r	.	4.r	.
.	.	.	.	.	.	.	.	.	.	.	.	8GG-	8FF#	.	.	.	.	.	.	.	.	.	.	.
.	.	8.cJ)	.	8.eJ)	.	8.a#XJ)	.	8.ff#XJ)	.	.	.	.	.	.	.	.	.	.	.	.	.	.	.	.
.	.	.	.	.	.	.	.	.	.	.	.	8FF#J	8FF#J	.	.	.	.	.	.	.	.	.	.	.
*	*	*	*	*	*	*	*	*	*	*	*	*	*	*	*	*	*	*	*	*clefG2	*	*	*	*
!	!	!	!	!	!	!	!	!LO:TX:B:t=calmando	!	!	!	!	!	!	!	!	!	!	!	!	!	!	!LO:TX:B:t=calmando	!
4.FF#_	.	4.g~	f	(>8.f#X~L	f	4.d~ 4.b	f	(>8.b~L	f	.	.	8r	8r	.	.	.	4.r	.	.	4.ryy	4.d	mf	(>8.f#X~L	f >
.	.	.	.	.	.	.	.	.	.	.	.	8GG-L	8FF#L	.	.	.	.	.	.	.	.	.	.	.
.	.	.	.	8.eJ)	.	.	.	8.eeJ)	.	.	.	.	.	.	.	.	.	.	.	.	.	.	8.eJ)	]
.	.	.	.	.	.	.	.	.	.	.	.	8FF#J	8FF#J	.	.	.	.	.	.	.	.	.	.	.
=183	=183	=183	=183	=183	=183	=183	=183	=183	=183	=183	=183	=183	=183	=183	=183	=183	=183	=183	=183	=183	=183	=183	=183	=183
2.FF#X_	.	4.f#X~	.	(>8.e~L	.	4.c#X~ 4.a	.	(>8.a~L	.	8%9r	8%9r	8r	8r	.	8%9r	.	8%9r	2.FFF#_	.	4.r	4.c#X	.	(<8.eL	>
.	.	.	.	.	.	.	.	.	.	.	.	8FF#XL	16FF#XLL	.	.	.	.	.	.	.	.	.	.	.
.	.	.	.	8.dJ)	.	.	.	8.ddJ)	.	.	.	.	16FF#	.	.	.	.	.	.	.	.	.	8.dJ)	.
.	.	.	.	.	.	.	.	.	.	.	.	8GG-XJ	16FF#	.	.	.	.	.	.	.	.	.	.	.
.	.	.	.	.	.	.	.	.	.	.	.	.	16FF#JJ	.	.	.	.	.	.	.	.	.	.	.
!	!	!	!	!	!	!	!	!LO:TX:B:t=poco rit.	!	!	!	!	!	!	!	!	!	!	!	!	!	!	!LO:TX:B:t=poco rit.	!
.	.	(>4.e~	.	2.fn~	.	2.B~	.	(<8.g~L	.	.	.	8FF#L	8FF#L	.	.	.	.	.	.	(>8.g~L	2.B-~	mf	(>4.e	f ]
.	.	.	.	.	.	.	.	.	.	.	.	8GG-	8FF#	.	.	.	.	.	.	.	.	.	.	.
.	.	.	.	.	.	.	.	8.a~	.	.	.	.	.	.	.	.	.	.	.	8.a~J	.	.	.	.
.	.	.	.	.	.	.	.	.	.	.	.	8FF#J	8FF#J	.	.	.	.	.	.	.	.	.	.	.
4.FF#_	.	4.d~	.	.	.	.	.	8.b~	.	.	.	8r	8r	.	.	.	.	4.FFF#_	.	8.bX~L	.	.	4.d	.
.	.	.	.	.	.	.	.	.	.	.	.	8GG-L	8FF#L	.	.	.	.	.	.	.	.	.	.	.
.	.	.	.	.	.	.	.	8.cc#X~J)	.	.	.	.	.	.	.	.	.	.	.	8.cc#X~J)	.	.	.	.
.	.	.	.	.	.	.	.	.	.	.	.	8FF#J	8FF#J	.	.	.	.	.	.	.	.	.	.	.
=184	=184	=184	=184	=184	=184	=184	=184	=184	=184	=184	=184	=184	=184	=184	=184	=184	=184	=184	=184	=184	=184	=184	=184	=184
!	!	!	!	!	!	!	!	!LO:TX:B:t=a tempo	!	!	!	!	!	!	!	!	!	!	!	!	!	!	!LO:TX:B:t=a tempo	!
2.FF#_	.	2.c#X~)	>	2.f#X~	>	2.A#X~	>	2.f#X~	>	8%9r	8%9r	8r	8r	.	8%9r	.	8%9r	4.FFF#]	.	[4.f~	[4.A#X	> >	2.c#X)	>
.	.	.	.	.	.	.	.	.	.	.	.	8FF#XL	16FF#XLL	.	.	.	.	.	.	.	.	.	.	.
.	.	.	.	.	.	.	.	.	.	.	.	.	16FF#	.	.	.	.	.	.	.	.	.	.	.
.	.	.	.	.	.	.	.	.	.	.	.	8GG-XJ	16FF#	.	.	.	.	.	.	.	.	.	.	.
.	.	.	.	.	.	.	.	.	.	.	.	.	16FF#JJ	.	.	.	.	.	.	.	.	.	.	.
.	.	.	.	.	.	.	.	.	.	.	.	8FF#L	8FF#L	.	.	.	.	[2.FFF#X	.	8f]	8A#]	]	.	.
.	.	.	.	.	.	.	.	.	.	.	.	8GG-	8FF#	.	.	.	.	.	.	8r	8ryy	]	.	.
.	.	.	.	.	.	.	.	.	.	.	.	8FF#J	8FF#J	.	.	.	.	.	.	8r	8ryy	.	.	.
4.FF#_	.	(>4.d	mf ]	(>4.b	mf ]	(<4.g#X	mf ]	(>4.ee	mf ]	.	.	8r	8r	.	.	.	.	.	.	4.r	4.ryy	.	(>4.d	mf ]
.	.	.	.	.	.	.	.	.	.	.	.	8GG-L	8FF#L	.	.	.	.	.	.	.	.	.	.	.
.	.	.	.	.	.	.	.	.	.	.	.	8FF#J	8FF#J	.	.	.	.	.	.	.	.	.	.	.
*	*	*	*	*	*	*	*	*	*	*	*	*	*	*	*	*	*	*	*	*v	*v	*	*	*
=185	=185	=185	=185	=185	=185	=185	=185	=185	=185	=185	=185	=185	=185	=185	=185	=185	=185	=185	=185	=185	=185	=185	=185
*	*	*	*	*	*	*^	*	*^	*	*	*	*	*	*	*	*	*	*	*	*	*	*	*
2.FF#X_	.	2.f#X)	.	2.c#X)	.	2.A#X)	4.ryy	.	2.e)	4.ryy	.	8%9r	8%9r	8r	8r	.	8%9r	.	8%9r	4.FFF#]	.	8%9r	.	[4.f#X)	.
.	.	.	.	.	.	.	.	.	.	.	.	.	.	8FF#XL	16FF#XLL	.	.	.	.	.	.	.	.	.	.
.	.	.	.	.	.	.	.	.	.	.	.	.	.	.	16FF#	.	.	.	.	.	.	.	.	.	.
.	.	.	.	.	.	.	.	.	.	.	.	.	.	8GG-XJ	16FF#	.	.	.	.	.	.	.	.	.	.
.	.	.	.	.	.	.	.	.	.	.	.	.	.	.	16FF#JJ	.	.	.	.	.	.	.	.	.	.
.	.	.	.	.	.	.	4.ryy	.	.	4.ryy	.	.	.	8FF#L	8FF#L	.	.	.	.	[2.FFF#X	.	.	.	8f#]	.
.	.	.	.	.	.	.	.	.	.	.	.	.	.	8GG-	8FF#	.	.	.	.	.	.	.	.	8r	.
.	.	.	.	.	.	.	.	.	.	.	.	.	.	8FF#J	8FF#J	.	.	.	.	.	.	.	.	8r	.
!	!	!	!	!	!	!LO:TX:t=div.	!	!	!LO:TX:t=div.	!	!	!	!	!	!	!	!	!	!	!	!	!	!	!	!
4.FF#_	.	4.r	.	4.r	.	(>4.b	(<4.d	p > ]	(>4.ee	(<4.g#X	p > ]	.	.	8r	8r	.	.	.	.	.	.	.	.	4.r	.
.	.	.	.	.	.	.	.	.	.	.	.	.	.	8GG-L	8FF#L	.	.	.	.	.	.	.	.	.	.
.	.	.	.	.	.	.	.	.	.	.	.	.	.	8FF#J	8FF#J	.	.	.	.	.	.	.	.	.	.
*	*	*clefF4	*	*	*	*	*	*	*	*	*	*	*	*	*	*	*	*	*	*	*	*	*	*	*
=186	=186	=186	=186	=186	=186	=186	=186	=186	=186	=186	=186	=186	=186	=186	=186	=186	=186	=186	=186	=186	=186	=186	=186	=186	=186
8FF#L]	.	8r	.	8%9r	.	[2.e)	[2.c#X)	>	[2.f#X)	[2.A#X)	>	8%9r	8%9r	8%9r	8%9r	.	8%9r	.	8%9r	4.FFF#]	.	8%9r	.	8%9r	.
16FF#XL	pp	16FF#XLL	pp	.	.	.	.	.	.	.	.	.	.	.	.	.	.	.	.	.	.	.	.	.	.
16FF#	.	16FF#	.	.	.	.	.	.	.	.	.	.	.	.	.	.	.	.	.	.	.	.	.	.	.
16FF#	.	16FF#	.	.	.	.	.	.	.	.	.	.	.	.	.	.	.	.	.	.	.	.	.	.	.
16FF#JJ	.	16FF#JJ	.	.	.	.	.	.	.	.	.	.	.	.	.	.	.	.	.	.	.	.	.	.	.
8FF#L	.	8FF#L	.	.	.	.	.	.	.	.	.	.	.	.	.	.	.	.	.	4.r	.	.	.	.	.
8FF#	.	8FF#	.	.	.	.	.	.	.	.	.	.	.	.	.	.	.	.	.	.	.	.	.	.	.
[8FF#J	.	[8FF#J	.	.	.	.	.	.	.	.	.	.	.	.	.	.	.	.	.	.	.	.	.	.	.
8FF#L]	.	8FF#L]	.	.	.	4.e]	4.c#]	]	4.f#]	4.A#]	]	.	.	.	.	.	.	.	.	4.r	.	.	.	.	.
8FF#	.	8FF#	.	.	.	.	.	.	.	.	.	.	.	.	.	.	.	.	.	.	.	.	.	.	.
[8FF#J	.	[8FF#J	.	.	.	.	.	.	.	.	.	.	.	.	.	.	.	.	.	.	.	.	.	.	.
*	*	*	*	*	*	*v	*v	*	*	*	*	*	*	*	*	*	*	*	*v	*v	*	*	*	*	*
*	*	*	*	*	*	*	*	*v	*v	*	*	*	*	*	*	*	*	*	*	*	*	*	*
=	=	=	=	=	=	=	=	=	=	=	=	=	=	=	=	=	=	=	=	=	=	=
*-	*-	*-	*-	*-	*-	*-	*-	*-	*-	*-	*-	*-	*-	*-	*-	*-	*-	*-	*-	*-	*-	*-
!!!system-decoration: s1,s2,s3,s4,s5{(s6,s7)}{(s8,s9)}s10,s11,s12,s13,s14
!!!RDF**kern: > = above
!!!RDF**kern: < = below
!!!RDF**kern: i = editorial accidental
!!!CDT: 1876/11/23-1946/11/14
!!!CBL: Cádiz, Spain
!!!CDL: Alta Gracia, Argentina
!!!CNT: Spanish
!!!AGN: Orchestral; Concerto
!!!MCN: Arbos, Enrique
!!!MDT: 1926/12/14
!!!MGN: Orquésta Sinfónica de Madrid
!!!MLC: Madrid, Spain
!!!MPD: 1926
!!!MPN: Cubiles, Jose
!!!ODT: 1915
!!!PDT: 1922
!!!excerpt-start-measure: 175
!!!excerpt-end-measure: 184
!!!excerpt-start-time: 5:27
!!!excerpt-end-time: 6:02
!!!EEV: 2020/01/22
!!!ONB: Converted from MusicXML on 2020/01/22
